X:1
T:From Night Till Morn -- Reel
R:reel
B:Ryan's Mammoth Collection
N:138
Z: Contributed by Ray Davies,  ray:davies99.freeserve.co.uk
M:C|
L:1/8
K:G
vG2BG G2BG | egfa gedB | G2BG G2BG | AcBA GEE2 |
 G2BG G2BG | egfa gedB | G2BG G2BG | AcBA GEE2 ::
vgfeg fedB | gfga bee2 | gfeg fedB | AcBA GEE2 |
 gfeg fedB | gfga bee2 | gfeg fedB | AcBA GEE2 :|
